X:1
T:Title
%%score { 1 | ( 2 3 ) }
L:1/8
Q:1/4=100
M:4/4
K:F
V:1 treble nm="Grand Piano"
V:2 bass 
V:3 bass 
V:1
 F2 A2 c3 c | dcAF [FA]2 [EG]2 | [FA]2 [CF]2 [DG][DF][B,D][DG] | [CF]2 [EG]2 A4 | F2 A2 c3 c | %5
w: Robert~Lowry * * *|||||
 dcAF [FA]2 [EG]2 | [DG]2 [D^FA]2 [DGB][DGB][C=FA][B,DG] | [A,CF]2 .[G,CE]2 [A,CF]4 | %8
w: |||
 [EG]2 [FA]2 [GB]4 | A2 d2 c4 | A2 c2 d c2 [DGB] | [CFA]2 [B,EG]2 [A,F]4 | [EG]2 [FA]2 [GB]4 | %13
w: |||||
 A2 d2 c4 | A2 c2 d c2 [DGB] | [CFA]2 [B,EG]2 [A,F]4 |] %16
w: |||
V:2
 [F,A,C]2 [F,CF]2 [F,A,F]3 [F,A,F] | [F,B,F][F,A,F][F,CF][F,A,C] [C,C]2 [C,C]2 | %2
 [F,C]2 [F,A,]2 [B,,B,][B,,B,][B,,F,][B,,B,] | [C,A,]2 [C,C]2 [F,CF]4 | %4
 [F,A,C]2 [F,CF]2 [F,A,F]3 [F,A,F] | [F,B,F][F,A,F][F,CF][F,A,C] [C,C]2 [C,C]2 | %6
 B,,2 A,,2 G,,G,,A,,B,, | C,2 z B, F,4 | [C,C]2 [C,C]2 [C,C]4 | [F,CF]2 [F,B,F]2 [F,A,F]4 | %10
 [F,CF]2 [F,A,F]2 [F,B,F] [F,A,F]2 B,, | C,2 C,2 F,4 | [C,C]2 [C,C]2 [C,C]4 | %13
 [F,CF]2 [F,B,F]2 [F,A,F]4 | [F,CF]2 [F,A,F]2 [F,B,F] [F,A,F]2 B,, | C,2 C,2 F,4 |] %16
V:3
 x8 | x8 | x8 | x8 | x8 | x8 | x8 | z2 C,2 z4 | x8 | x8 | x8 | x8 | x8 | x8 | x8 | x8 |] %16

